components/Common/Svg/svgs/support.svg

<svg width="40" height="41" viewBox="0 0 40 41" fill="none" xmlns="http://www.w3.org/2000/svg">
<path fill-rule="evenodd" clip-rule="evenodd" d="M9.74 10.3163C8.31164 8.963 2.6 8.52465 0.883359 8.42301C0.646719 8.41137 0.428359 8.48965 0.261719 8.64801C0.095 8.80464 0 9.02464 0 9.25464V24.2545C0 24.7145 0.373359 25.0878 0.833359 25.0878H5.83336C6.19336 25.0878 6.51336 24.8562 6.625 24.5128L6.62512 24.5124C6.64223 24.4599 6.71214 24.2454 6.82087 23.9032C6.95754 24.0444 7.10442 24.1977 7.25716 24.3571L7.43822 24.546L7.4523 24.5607C8.19127 25.3328 8.95312 26.1287 9.46658 26.5593C12.5699 29.1577 16.2999 31.9626 17.0432 32.4509C17.6566 32.8543 18.9782 33.4209 20.0016 33.4209C20.8232 33.4209 21.4549 33.2325 21.8932 32.8643C22.4799 33.0926 23.1466 33.0943 23.7882 32.8443C24.5466 32.5509 25.1699 31.9593 25.5232 31.2426C26.1799 31.3826 26.9316 31.2843 27.6149 30.941C28.2832 30.6044 28.7665 30.0894 29.0065 29.4877C29.6699 29.5227 30.3531 29.2877 30.9181 28.8027C31.6807 28.1505 32.0028 27.2093 31.822 26.2727L33.1389 25.3881C33.2319 25.688 33.3077 25.943 33.3628 26.1428C33.4628 26.5045 33.7912 26.7545 34.1662 26.7545H39.1662C39.6262 26.7545 39.9995 26.3811 39.9995 25.9211V10.9213C39.9995 10.4597 39.6262 10.0881 39.1662 10.0881C32.6228 10.0881 28.9928 11.763 28.8412 11.833C28.6246 11.9347 28.4628 12.123 28.3962 12.3514C28.3379 12.551 28.356 12.7634 28.445 12.9494C27.1857 12.4721 25.4294 11.7783 23.6749 10.9929C20.6677 9.64861 18.7286 10.0587 16.5794 11.7547H9.91138C9.9469 11.4884 9.97562 11.2338 9.99664 10.993C10.0184 10.7396 9.925 10.4896 9.74 10.3163ZM29.4489 15.0976C28.5761 14.7851 25.7824 13.7635 22.9933 12.5162C20.0433 11.1979 18.6467 11.8762 15.9383 14.5862C14.8 15.7245 13.9217 17.4279 14.0967 18.1595C14.1217 18.2662 14.1683 18.3779 14.4283 18.4645C15.2433 18.7378 16.4633 18.8878 17.6417 17.1262C17.78 16.9195 18.0033 16.7862 18.2517 16.7612C18.8115 16.7047 18.9525 16.6416 19.3659 16.4564L19.37 16.4545L19.407 16.4381L19.407 16.4381C19.6746 16.3188 20.0151 16.1672 20.5517 15.9729C20.8533 15.8645 21.1949 15.9379 21.4233 16.1679C22.3349 17.0795 23.7649 18.2362 25.2783 19.4595L25.2799 19.4608L25.2799 19.4608C27.5732 21.316 29.934 23.2258 31.0835 24.7606L32.6049 23.7388C31.7491 21.1724 30.4269 17.4749 29.4489 15.0976ZM8.64322 23.3927C8.1459 22.8734 7.68371 22.3938 7.37794 22.1068C8.07427 19.8087 9.08022 16.2879 9.63403 13.4214H14.7465C13.608 14.5665 12.075 16.8603 12.4732 18.5445C12.6449 19.2645 13.1516 19.7979 13.9049 20.0461C15.7932 20.6695 17.5165 20.0728 18.7999 18.3695C19.3299 18.2879 19.6182 18.1679 20.0515 17.9729C20.2081 17.9029 20.3915 17.8212 20.6349 17.7229C21.5882 18.6179 22.8749 19.6595 24.2299 20.7545L24.2346 20.7583C26.6834 22.739 29.4586 24.9836 30.0832 26.2828C30.3916 26.9244 30.0599 27.3428 29.8349 27.5344C29.5168 27.8075 29.0858 27.901 28.8357 27.7537C28.2093 27.2497 25.5723 24.5499 23.9364 22.8446C23.618 22.5113 23.0898 22.4996 22.758 22.8196C22.4247 23.138 22.4147 23.6663 22.733 23.998C23.1198 24.4012 26.2375 27.651 27.4858 28.7886C27.3889 29.1491 27.0383 29.3643 26.8682 29.4494C26.3457 29.7139 25.8008 29.6745 25.583 29.4909C25.5639 29.4725 25.5438 29.4547 25.5227 29.4378C24.5243 28.6395 22.0161 25.9745 21.4493 25.3579C21.136 25.0179 20.611 24.9979 20.271 25.3079C19.9326 25.6195 19.9093 26.1479 20.221 26.4862L20.2389 26.5054C20.4651 26.7486 22.7561 29.211 24.078 30.3951C23.9209 30.7903 23.5902 31.1316 23.1881 31.2876C22.9331 31.3843 22.5631 31.4426 22.2315 31.1393C22.2186 31.1277 22.2055 31.1165 22.192 31.1058C20.9993 30.0968 18.5827 27.5245 18.1093 27.0179C17.7943 26.6812 17.266 26.6629 16.931 26.9779C16.5943 27.2929 16.5776 27.8195 16.891 28.1562C17.4546 28.7597 19.1363 30.5436 20.3975 31.7318C20.2914 31.7459 20.1613 31.7543 20.0015 31.7543C19.4465 31.7543 18.4481 31.3793 17.9599 31.0559C17.3749 30.6709 13.7065 27.9343 10.5382 25.281C10.0932 24.906 9.32322 24.1026 8.64322 23.3927ZM5.225 23.4212H1.66664V10.148C4.345 10.3596 7.235 10.8196 8.285 11.3296C7.84336 14.9796 5.845 21.4645 5.225 23.4212ZM34.7895 25.0879H38.3329V11.7648C34.3679 11.858 31.6362 12.5997 30.3645 13.0314C31.6662 15.8046 33.9995 22.5145 34.7895 25.0879Z" fill="#161616"/>
</svg>

<svg width="40" height="41" viewBox="0 0 40 41" fill="none" xmlns="http://www.w3.org/2000/svg"><path fill-rule="evenodd" clip-rule="evenodd" d="M9.74 10.316C8.312 8.963 2.6 8.525.883 8.423A.833.833 0 0 0 0 9.255v15c0 .46.373.833.833.833h5c.36 0 .68-.232.792-.575l.196-.61c.137.141.283.295.436.454l.181.189.014.015c.74.772 1.501 1.568 2.015 1.998 3.103 2.599 6.833 5.404 7.576 5.892.614.403 1.935.97 2.959.97.821 0 1.453-.188 1.891-.557.587.229 1.254.23 1.895-.02a3.282 3.282 0 0 0 1.735-1.601c.657.14 1.409.041 2.092-.302.668-.337 1.152-.852 1.392-1.453.663.035 1.346-.2 1.911-.685.763-.652 1.085-1.594.904-2.53l1.317-.885c.093.3.169.555.224.755.1.361.428.611.803.611h5c.46 0 .834-.373.834-.833v-15a.832.832 0 0 0-.834-.833c-6.543 0-10.173 1.675-10.325 1.745a.83.83 0 0 0-.396 1.116 90.598 90.598 0 0 1-4.77-1.956c-3.007-1.344-4.946-.934-7.096.762H9.911c.036-.267.065-.521.086-.762a.829.829 0 0 0-.257-.677Zm19.709 4.782a97.583 97.583 0 0 1-6.456-2.582c-2.95-1.318-4.346-.64-7.055 2.07-1.138 1.139-2.016 2.842-1.841 3.574.025.106.071.218.331.305.815.273 2.035.423 3.214-1.339a.833.833 0 0 1 .61-.365c.56-.056.7-.12 1.114-.305l.004-.002.037-.016c.268-.12.608-.27 1.145-.465a.833.833 0 0 1 .871.195c.912.912 2.342 2.068 3.855 3.291l.002.002c2.293 1.855 4.654 3.765 5.803 5.3l1.522-1.022c-.856-2.567-2.178-6.264-3.156-8.641ZM8.643 23.393c-.497-.52-.96-1-1.265-1.286.696-2.298 1.702-5.82 2.256-8.686h5.112c-1.138 1.146-2.671 3.44-2.273 5.123.172.72.679 1.254 1.432 1.502 1.888.623 3.612.027 4.895-1.677.53-.081.818-.201 1.252-.396.156-.07.34-.152.583-.25.953.895 2.24 1.937 3.595 3.032l.005.003c2.448 1.981 5.224 4.226 5.848 5.525.309.641-.023 1.06-.248 1.251-.318.274-.75.367-1 .22-.626-.504-3.263-3.204-4.899-4.91a.833.833 0 1 0-1.203 1.153c.387.404 3.505 3.654 4.753 4.792-.097.36-.448.575-.618.66-.522.265-1.067.225-1.285.042a.88.88 0 0 0-.06-.053c-.999-.798-3.507-3.463-4.074-4.08a.835.835 0 0 0-1.228 1.128l.018.02c.226.243 2.517 2.705 3.839 3.89a1.61 1.61 0 0 1-.89.892c-.255.096-.625.155-.956-.149a.832.832 0 0 0-.04-.033c-1.193-1.01-3.61-3.582-4.083-4.088a.833.833 0 1 0-1.218 1.138c.564.604 2.245 2.388 3.507 3.576a3.035 3.035 0 0 1-.396.022c-.555 0-1.554-.375-2.042-.698-.585-.385-4.254-3.122-7.422-5.775-.445-.375-1.215-1.178-1.895-1.888Zm-3.418.028H1.667V10.148c2.678.212 5.568.672 6.618 1.182-.442 3.65-2.44 10.135-3.06 12.091Zm29.564 1.667h3.544V11.765c-3.965.093-6.697.835-7.968 1.266 1.301 2.774 3.634 9.484 4.424 12.057Z" fill="#161616"/></svg>
